X:1
T:Brüder, lasset uns eins singen
T:Brüder, lasset uns eins singen
T:Ein Hoch der Freundschaft, dem Wein und der Liebe
T:Carl Blum (1786-1844)
C:Carl Blum (1786-1844)
%%score [ 1 2 3 4 ]
L:1/8
Q:1/4=110
M:4/4
K:A
V:1 treble-8 nm="T1"
V:2 treble-8 nm="T2"
V:3 bass nm="B1"
V:4 bass nm="B2"
V:1
"^Sehr lebhaft und lustig"!f! e2 e2 | (fe) (^de) c2 A2 | B2 E2 E2 (FG) | (A>B) (c>d) e2 c2 | %4
w: 1.Brü- der,|las- * set _ uns eins|sin- gen, trau- te _|Her- * zens- * brü- der,|
 B4 e2 e2 | (fe) (^de) c2 A2 | B2 g2 (fe) (^dc) | B2 B2!p! B2 (c^d) | e2 g2 (fe) (^dc) | %9
w: hört! las- set|und _ ein _ Vi- vat|brin- gen, al- * lem _|was uns lieb und _|wert, ja al- * lem _|
 B2 B2!f! a3 ^d | e4 E2 E2 | G2 E2 G2 B2 | d2 d2 E2 E2 | A2 E2 A2 c2 | e2 e2!f! A2 A2 | %15
w: was uns lieb und|wert. Soll die|Freu- de nicht ver-|ge- hen, muss Ge-|sang die Lust er-|hö- hen, da- rum|
 f2 f2 (f>a) (g>f) | e4 d2 d2 | c2 c2 B2 B2 | A2 z2!ff! c2 z2 |!ff! !>!e4 d2 d2 | c2 c2 B2 B2 | %21
w: las- set Ju- * bel- *|sang mi- schen|in den Be- cher-|klang! Klang!|Klang! mi- schen|in den Be- cher-|
 A4 A2 A2 | f2 f2 (f>a) (g>f) | e4 d2 d2 | c2 c2 B2 B2 | A2 z2!ff! c2 z2 | !>!e4 d2 d2 | %27
w: klang! Da- rum|las- set Ju- * bel- *|sang mi- schen|in den Be- cher-|klang! Klang!|Klang! mi- schen|
 c2 c2 B2 B2 | A4 |] %29
w: in den Be- cher-|klang!|
V:2
!f! c2 c2 | c2 c2 A2 A2 | G2 E2 E2 E2 | E2 A2 A2 A2 | G4 c2 c2 | c2 c2 c2 A2 | G2 B2 c2 A2 | %7
w: 1.Brü- der,|las- set uns eins|sin- gen, trau- te|Her- zens- brü- der,|hört! las- set|und ein Vi- vat|brin- gen, al- lem|
 G2 B2!p! A2 A2 | G2 z2 c2 A2 | G2 B2!f! B2 B2 | B4 E2 E2 | G2 E2 E2 G2 | B2 B2 E2 E2 | %13
w: was uns lieb und|wert, al- lem|was uns lieb und|wert. Soll die|Freu- de nicht ver-|ge- hen, muss Ge-|
 A2 E2 A2 A2 | c2 c2!f! A2 A2 | d2 d2 (d>f) (e>d) | c4 B2 B2 | A2 A2 G2 G2 | A2 z2!ff! c2 z2 | %19
w: sang die Lust er-|hö- hen, da- rum|las- set Ju- * bel- *|sang mi- schen|in den Be- cher-|klang! Klang!|
!ff! !>!c4 B2 B2 | A2 A2 G2 G2 | A4 A2 A2 | (FD) (FA) (d>f) (e>d) | c4 B2 B2 | A2 A2 G2 G2 | %25
w: Klang! mi- schen|in den Be- cher-|klang! Da- rum|las- * set _ Ju- * bel- *|sang mi- schen|in den Be- cher-|
 A2 z2!ff! c2 z2 | !>!c4 B2 B2 | A2 A2 G2 G2 | A4 |] %29
w: klang! Klang!|Klang! mi- schen|in den Be- cher-|klang!|
V:3
!f! A,2 A,2 | A,2 A,2 A,2 A,2 | E,2 E,2 E,2 D,2 | C,2 C,2 C,2 E,2 | E,4 A,2 A,2 | A,2 A,2 A,2 A,2 | %6
w: 1.Brü- der,|las- set uns eins|sin- gen, trau- te|Her- zens- brü- der,|hört! las- set|und ein Vi- vat|
 G,2 E,2 E,2 F,2 | G,2 G,2!p! F,2 F,2 | G,2 z2 E,2 F,2 | G,2 G,2!f! F,2 A,2 | G,4 E,2 E,2 | %11
w: brin- gen, al- lem|was uns lieb und|wert, al- lem|was uns lieb und|wert. Soll die|
 E,2 E,2 E,2 E,2 | E,2 E,2 E,2 E,2 | C,2 C,2 C,2 E,2 | C,2 C,2!f! A,2 A,2 | A,2 A,2 A,2 A,2 | %16
w: Freu- de nicht ver-|ge- hen, muss Ge-|sang die Lust er-|hö- hen, da- rum|las- set Ju- bel-|
 A,4 F,2 F,2 | A,2 E,2 E,2 E,2 | A,2 z2!ff! A,2 z2 |!ff! !>!A,4 F,2 F,2 | A,2 E,2 G,2 E,2 | %21
w: sang mi- schen|in den Be- cher-|klang! Klang!|Klang! mi- schen|in den Be- cher-|
 A,4 A,2 A,2 | A,2 A,2 A,2 A,2 | A,4 F,2 F,2 | A,2 E,2 G,2 E,2 | A,2 z2!ff! A,2 z2 | %26
w: klang! Da- rum|las- set Ju- bel-|sang mi- schen|in den Be- cher-|klang! Klang!|
 !>!A,4 F,2 F,2 | A,2 E,2 G,2 E,2 | A,4 |] %29
w: Klang! mi- schen|in den Be- cher-|klang!|
V:4
!f! A,,2 A,,2 | A,,2 A,,2 A,,2 A,,2 | E,2 D,2 C,2 B,,2 | A,,2 A,,2 A,,2 A,,2 | E,4 E,2 E,2 | %5
w: 1.Brü- der,|las- set uns eins|sin- gen, trau- te|Her- zens- brü- der,|hört! las- set|
 E,2 E,2 E,2 E,2 | E,2 E,2 A,,2 A,,2 | B,,2 B,,2!p! B,,2 B,,2 | E,2 z2 A,,2 A,,2 | %9
w: und ein Vi- vat|brin- gen, al- lem|was uns lieb und|wert, al- lem|
 B,,2 B,2!f! B,2 B,,2 | E,4 E,2 E,2 | (E,D) (CB,) (A,G,) (F,E,) | (E,^D,) (E,F,) (E,=D,) (C,B,,) | %13
w: was uns lieb und|wert. Soll die|Freu- * de _ nicht _ ver- *|ge- * hen, _ muss _ Ge- *|
 A,,2 A,,2 A,,2 A,,2 | A,,2 A,,2!f! A,,2 A,,2 | A,2 A,2 A,2 A,2 | A,,4 D,2 D,2 | E,2 E,2 E,2 E,2 | %18
w: sang die Lust er-|hö- hen, da- rum|las- set Ju- bel-|sang mi- schen|in den Be- cher-|
 A,2 z2!ff! A,2 z2 |!ff! !>!A,,4 D,2 D,2 | E,2 E,2 E,2 E,2 | A,4 A,2 A,2 | D,2 D,2 D,2 D,2 | %23
w: klang! Klang!|Klang! mi- schen|in den Be- cher-|klang! Da- rum|las- set Ju- bel-|
 A,,4 D,2 D,2 | E,2 E,2 E,2 E,2 | A,2 z2!ff! A,2 z2 | !>!A,,4 D,2 D,2 | E,2 E,2 E,2 E,2 | A,4 |] %29
w: sang mi- schen|in den Be- cher-|klang! Klang!|Klang! mi- schen|in den Be- cher-|klang!|

